X:1
T:Apparitions
T:Apparitions
T:No. 3 - Fantasy on a Waltz by Franz Schubert
T:Franz Liszt
C:Franz Liszt
%%score { ( 1 4 5 6 ) | ( 2 3 7 8 ) }
L:1/8
Q:1/4=72
M:4/4
K:Eb
V:1 treble nm="Piano" snm="Pno."
V:4 treble 
V:5 treble 
V:6 treble 
V:2 bass 
V:3 bass 
V:7 bass 
V:8 bass 
V:1
!ff!"^Molto agitato ed appassionato." z | z4 z!ff! [=A=a]2 [Aa][Q:1/4=80] | %2
[M:3/4][Q:1/4=72]!>(! [=A=a]!mf! !^![Bb]2[Q:1/4=64]"^poco rit." .[Gg]!>)!!mp!.[Dd]!breath!.e | %3
[M:4/4]!ff![Q:1/4=80] z4 z !>!_c2 !>!c | %4
[M:3/4][Q:1/4=72] _c!mp! !^!B2[Q:1/4=64]"^poco rit."!p! ef^f | %5
[M:4/4][Q:1/4=72] z!<(! g2 g{/gb} a g2[Q:1/4=84] g!<)! | %6
 (3g'2!>(! ^f'2 =f'2[Q:1/4=80] =e' _e'2!>)!!p! g | %7
[M:3/4][Q:1/4=72]"^rallentando" !^!b3[Q:1/4=64] !tenuto!d!tenuto!=a!tenuto!b | %8
[M:4/4][Q:1/4=80] g2 z2"_cresc." z4[Q:1/4=86] | z2!f! [=A=a]3 [Aa]2!mf! [Aa] | %10
[M:3/4][Q:1/4=76] [=A=a]!mp! !^![Bb]2[Q:1/4=72]!p! !tenuto!g!tenuto!d!tenuto!e | %11
[M:4/4] z2!p! !^!_c3 (5:4:5B/4=c/4B/4=A/4B/4 !>!gf[Q:1/4=66] | %12
!>(! e B2 G2[Q:1/4=60] E2!>)!!pp! !tenuto!B, | %13
[Q:1/4=180]!mp! x2[Q:1/4=80] !^!=A4- A!mp! !^!A2[Q:1/4=62]"^Adagio" A | %14
[M:3/4] =A!p![Q:1/4=56] !^!B2 !tenuto!G!tenuto!D!tenuto!E | %15
[M:4/4][Q:1/4=180] x4 x4 x2[Q:1/4=80][Q:1/4=60] | %16
[M:3/4] x3!pp!!<(! !tenuto!E!tenuto!F!tenuto!^F!<)![Q:1/4=56] | %17
[M:4/4][Q:1/4=180]"^poco a poco crescendo ed accelerando" x2!p! !^!G3 D[Q:1/4=180] x2[Q:1/4=186]!mp! !^!=A3 D | %18
[Q:1/4=180] x2!mf![Q:1/4=192] !^!B3 _D[Q:1/4=180] x[I:staff +1] (3=A,/[I:staff -1]C/=A/[Q:1/4=198]!mf! !^!c3 F | %19
[Q:1/4=180] x2[Q:1/4=204]!f! !^!^c3 =E[Q:1/4=180] x (3^B,/^D/^B/!ff![Q:1/4=210] !^!^d3 !tenuto!^G | %20
[Q:1/4=80] z/!mf![Q:1/4=112] ^d/!<(!^A/=B/^c/^^c/d/^g/!<)!!f! (3!arpeggio!!breath![^FA^a][Q:1/4=82]"^molto rall."!mf!!>(! !fermata![FAg][FA^f][Q:1/4=62] (3[FA^e][FA=e]!tenuto![FAd]!>)! || %21
[M:3/4][Q:1/4=102]"^Moderato"!pp!"^Valse de Schubert" =BB B2 B2 | =BB B2 B2 | %23
 [=EG=B] [EGB] [EGB]2 !>![EGc]2 | [=E^F=A=B] [EFAB] [EFAB]2 !>![EFAc]2 | %25
 [=EG=B] [EGB] !>![EGB=e]2 [EGd]c | !tenuto![=B,^D^F=B]6 | [=EG=B][EGB] [EGB]2 [EGc]2 | %28
 [^D=A=B][DAB] [DAB]2 [D^FA]2 | [=EG][EG][Q:1/4=86] [EG]2!pp![Q:1/4=72] [^D^F]2 |!ppp! [=B,=E]6 || %31
[K:E]!pp![Q:1/4=112] [EGB][EGB][Q:1/4=128] [EGB]2!<(! !tenuto![EGc]2 | %32
 [DAB][DAB] [DAB]2 !tenuto![DAc]2 | [EGB][EGB]!<)!!p! !>!e2!>(! dc!>)! |!pp! [DAB]6 | %35
 [EGB][EGB] [EGB]2 !tenuto![EGc]2 | [DAB][DAB] [DAB]2 !tenuto![DFA]2 | %37
 [B,EG][B,EG] [B,EG]2 !tenuto![A,DF]2 | [G,E]6 | %39
!pp![Q:1/4=128]"^rubato" [EGB][EGB] [EGB]2!<(! [EGc]2 |[Q:1/4=134] [DAB][DAB] [DAB]2 [DAc]2 | %41
[Q:1/4=140] [EGB][EGB]!<)!!p! !>!e2!>(! dc!>)! |!pp![Q:1/4=128] [DAB]6 | %43
!pp! [E=GB]!<(![EGB] [EGB]2 [EG=c]2 |[Q:1/4=134] [=D=GB][DGB] [DGB]2 [DG=c]2 | %45
[Q:1/4=140] [=DF=d][DFd] [DFd]2!<)!!mp! [DFd]2 |[Q:1/4=128]!pp! [=D=G]6 | %47
!p! [=DF=c=d]!<(![DFcd] [DFcd]2 [DFcd]2 |[Q:1/4=134] [=D=GB=d]3 GAB | %49
[Q:1/4=140] [=DF=c=d][DFcd] [DFcd]2 [DFcd]2!<)! |!mf![Q:1/4=128] [=D=GB=d]6 | %51
!p! [F=c=e]!<(![Fc=d] [Fcd]2 [Fcd]2 |[Q:1/4=134] [=GB=d]3 GAB!<)! | %53
[Q:1/4=140]!mp! [F=c_e]!>(![Fc=d] [Fcd]2 [Fcd]2!>)! |[Q:1/4=128]!p! [=GB=d]6 | %55
!mf! [^DAB][DAB] [DAB]2 [DAB]2 |[Q:1/4=134] [EGB]3 [Ge][Bf][eg] | %57
[Q:1/4=140] [Ada][Ada] [Ada]2 [Ada]2 |[Q:1/4=128]!p! [Geg]6 |!mp! [^DAB]!<(![DAB] [DAB]2 [DA=c]2 | %60
[Q:1/4=134] [EGB]3 [Ge][Bf][eg]!<)! |[Q:1/4=140]!mf! [Ada][Ada] [Ada]2 !breath![Ada]2 | %62
[Q:1/4=118]"_smors."!mf!!>(! [^A^a][Aa][Q:1/4=108] [Aa]2!>)!!pp![Q:1/4=80] !tenuto![Aa]2 | %63
!pp![Q:1/4=128] [Geb][Geb] [Geb]2 !arpeggio![Gec']2 | [Adfb][Adfb] [Adfb]2 !arpeggio![Adfc']2 | %65
 [Gegb][Gegb] !arpeggio![Gege']2 d'c' | [Adfb]6 | [Geb][Geb] [Geb]2 !arpeggio![Gec']2 | %68
 [Adfb][Adfb] [Adfb]2 !arpeggio![Adf=c']2 | [Geb][Geb] !arpeggio![Geb]2 [FBa][Af] | [Ge]6 | %71
 [Geb][Geb] [Geb]2 !arpeggio![Gec']2 | [Adfb][Adfb] [Adfb]2 !arpeggio![Adfc']2 | %73
 [Gegb][Gegb] !arpeggio!!tenuto![Gege']2 d'c' | [Adfb]6 | %75
!pp! [=Ge=gb]!<(![Gegb] [Gegb]2 !arpeggio![Geg=c']2 | %76
 [=G=d=gb][Gdgb] [Gdgb]2!<)!!p! !arpeggio![Gdg=c']2 | %77
!p![Q:1/4=112] !>!=d'!>(!!>!d' !arpeggio!!>![A=dfd']2 [Af=c'][da]!>)! | %78
!pp![Q:1/4=128] [=G=d=g]4 z2 | [=cfa=d'][cfad'] [cfad']2 [cfad']2 | [B=gb=d']3 [Bg][=da][gb] | %81
 [=cfa=d'][cfad'] [cfad']2 [cfad']2 | [B=g=d']6 | [=cfae'][cfa=d'] [cfad']2 [cfad']2 | %84
 [B=g=d']3 [Bg][=da][gb] | [=cfa_e'][cfa=d'] [cfad']2 [cfad']2 | [B=g=d']6 | %87
!p![Q:1/4=130] [ABdfb][ABdfb] [ABdfb]2 [ABdfb]2 | %88
[Q:1/4=140]"^accel.""_cresc." [Gegb]3!8va(! [ege'][fbf'][ge'g'] | %89
[Q:1/4=150] [abd'a'][abd'a'] [abd'a']2 [abd'a']2 | [gbe'g']6!8va)! | %91
!ff![Q:1/4=160] [Adfb][Adfb] [Adfb]2 [Adf=c']2 | %92
[Q:1/4=170]"^accel.."!f!"_cresc." [Gegb]3!8va(! [ege'][fbf'][ge'g'] | %93
[Q:1/4=180] [ad'a'][^a^a'][bb'][^b^b'][c'=a'c''][d'd''] | %94
!ff! .[e'g'e''].[e'g'e''] .[e'e'']2 !breath!.[e'e'']2!8va)! |!mp![Q:1/4=166] .e'.e' e'2 x2 | %96
 .e'.e' e'2 x2 | .[B,F].f.B.f' .[a=c'].[fb] | x .[^^Fce] x .[DA=c] x .E |!p! .e.e e2 x2 | %100
 .e.e e2[K:bass] x2 | .D,.E,.B,[K:treble].f.[A=c].[FB] | x .[CE] x4 | %103
 .[=CE].E .E[I:staff +1].E,.=D,.C, |!<(![I:staff -1] .[B,E].E .E[I:staff +1].D,.E,[I:staff -1].F | %105
 .[CE].[B,E] .E[I:staff +1].E,{/E,}.=D,.C, | %106
[I:staff -1] .[B,E].[A,E].E[I:staff +1].E,[I:staff -1] .E.E | %107
 .E[I:staff +1].E,!<)!!mf![Q:1/4=118][I:staff -1] x4 |[Q:1/4=140] z6 || %109
[K:C][M:4/4][Q:1/4=160]"^quasi improvisato\nagitato" z2!f!!8va(! (3g'g'g'(3g'g'g'(3g'g'g' | %110
[M:3/4][Q:1/4=130]!>(! (3g'!>!_b'_a'!>)![Q:1/4=100](3f'[_b_d']_a!8va)!(3f[Q:1/4=60]c!p!_d | %111
[M:4/4][Q:1/4=160] z2!mp! (3=AAA(3AAA(3AAA | %112
[M:3/4][Q:1/4=140]!>(! (3_A_d_e(3=efb[Q:1/4=100]_a/_d'/_e'/!>)!!p!=e'/ | %113
[M:4/4][Q:1/4=100]!mp!!8va(! (3f'f'f' (3f'f'f'"_cresc."{/_a'} (3!>!_g'[Q:1/4=120]f'f' f'/f'/f'/f'/ | %114
[Q:1/4=120] (3f'f'' f''(3e'' e''_e''!f! e''/d''/ d''/_d''/ d''/a'/ a'/b'/ | %115
[M:3/4]!>(! (3:2:2c''2 _b' (3:2:2_a'2[Q:1/4=100] a' (3:2:2g'2[Q:1/4=80] e'!>)! | %116
!p![Q:1/4=140] f'2!8va)![Q:1/4=200] z2 z2 | %117
[Q:1/4=110] z/4!p! _d/4c/4d/4c/4d/4c/4d/4 Tc/ =B/c/_e/ !tenuto!dz/!p!c/ | %118
[M:4/4] _d'4-!pp! d'/4[Q:1/4=60]!<(!c'/4g'/4_a'/4[Q:1/4=100]!>!_b/4a/4e'/4f'/4!>!g/4f/4=b/4c'/4[Q:1/4=120]!>!_d/4c/4f/4!<)!!p!a/4 | %119
[M:3/4]!p![Q:1/4=110]!8va(! !>!c'/4_d'/4c'/4d'/4!>!c'/4d'/4c'/4d'/4 Tc'/ =b/c'/_e'/ !tenuto!d'z/c'/ | %120
[M:4/4]!mp! !^!=e''4-!ppp![Q:1/4=30] (16:8:16e''/4f''/4_d''/4=b'/4b'/4[Q:1/4=40]c''/4_b'/4g'/4g'/4_a'/4f'/4e'/4e'/4f'/4_b/4!8va)!=b/4(24:8:21b/4c'/4_b/4g/4g/4_a/4f/4e/4e/4f/4_d/4B/4B/4c/4_B/4G/4G/4[Q:1/4=10]!p!_A/4E/4F/4[Q:1/4=40] !fermata!z | %121
[Q:1/4=130] z2!mp!!8va(! ^g'/!<(!g'/g'/g'/g'/g'/g'/g'/g'/g'/g'/!<)!!mf!g'/ | %122
[M:3/4][Q:1/4=110] ^g'/b'/a'/^f'/!8va)![Q:1/4=100]!>(!d'/b/a/^f/[Q:1/4=90]^c/d/^G/!>)!!p!A/ | %123
[M:4/4][Q:1/4=130] z2!p! _B/!<(!B/B/B/B/B/B/B/B/B/B/!<)!!mp!B/ | %124
[M:3/4][Q:1/4=120]!>(! ^G/A/d/e/^e/^f/b/^g/a/[Q:1/4=100]d'/e'/!>)!!p!^e'/ | %125
[M:4/4]!mp!!8va(! (3^f'f'f'(3f'"_cresc."f'f'{/a'} (3!>!g'[Q:1/4=110]f'f'f'/f'/f'/f'/ | %126
[Q:1/4=120] (3^f'^e'' e''(3=e'' e''^d''!f! d''/=d''/ d''/^c''/ c''/^a'/ a'/b'/ | %127
[M:3/4]!>(! (3:2:2^c''2 b' (3:2:2a'2[Q:1/4=100] a' (3:2:2^g'2[Q:1/4=80] ^e'!>)! | %128
!p![Q:1/4=140] ^f'2!8va)![Q:1/4=200] z2 z2 | %129
[Q:1/4=110] z/4!p! d/4^c/4d/4c/4d/4c/4d/4 Tc/ ^B/c/=e/ !tenuto!dz/!p!c/ | %130
[M:4/4] d'4- (5:4:5d'/4[Q:1/4=60]!pp!^b/4!<(!^c'/4^g'/4a'/4[Q:1/4=80][I:staff +1] (5:4:5b/4^g/4[I:staff -1]a/4^e'/4^f'/4[Q:1/4=100][I:staff +1] (5:4:5g/4^e/4[I:staff -1]^f/4b/4c'/4[Q:1/4=110][I:staff +1] (5:4:5d/4^B/4[I:staff -1]^c/4f/4!<)!!p!a/4 | %131
[M:3/4]!p!!8va(! z/4 d'/4^c'/4d'/4c'/4d'/4c'/4d'/4 Tc'/ ^b/c'/^e'/ !tenuto!^d'z/!p!c'/ | %132
[M:4/4] !^!^d''4-!ppp![Q:1/4=30] (12:8:12d''/4^c''/4b'/4^a'/4b'/4a'/4[Q:1/4=40]^g'/4^f'/4g'/4f'/4^d'/4^c'/4!8va)!(24:8:21^d'/4^c'/4b/4^a/4b/4a/4^g/4^f/4g/4f/4^d/4^c/4d/4c/4B/4^A/4B/4!p!A/4^G/4^F/4 !fermata!z | %133
[M:3/4][Q:1/4=98]!pp! z6 |[Q:1/4=104] x6 | %135
!mp!!<(! (3[^A,E] x [A,E][Q:1/4=120] (3[A,E]E[^Ae] (3E[Be]!f!E!<)! | %136
 (9:6:9[ce]!>(!E[ce]e[c'e']e[ce]EC!>)! |[Q:1/4=104] z6 |[Q:1/4=104] x2 (3CG,[B,D] (3G,[CE]G, | %139
!mp!!<(! (3[B,F] x [B,F][Q:1/4=130] (3[B,F]F[Bf] (3F[cf]!<)!!f!F | %140
!>(! (9:6:9[_df]F[df]f[_d'f']f[df]F!>)!!p!_D |[Q:1/4=150]!p! (3[^B,^F]x[B,F]"_cresc." [B,F]2 x2 | %142
 [d^f]^F[df]f[d'^f']f | (3[^CG]x[CG] [CG]2 x2 | [_eg]G[eg]g!f![_e'g']g |!mp! [D_A][DA] x2!f! x2 | %146
!mp! [^DA][DA] x2!f! x2 |[M:2/4]!mp!!<(! (3[^fa]x[fa]!<)!!f! x2 |!mp!!<(! (3[g^a]x[ga]!<)!!f! x2 | %149
[M:3/4]!mf! !>!!^!b!mf!!>!!^!b!mf! !>!!^!b2!mf! !>!!^!c'2 | %150
!mf! !>!!^!b!mf!!>!!^!b!mf! !>!!^!b2!mf! !>!!^!c'2 | %151
!mf! !>!!^!b!mf!!>!!^!b!mf! !>!!^!e'2!mf! (3!^!d'!mp!x!mf!!^!c' | !^!b4 x2 | %153
!mf! !>!!^!b!mf!!>!!^!b!mf! !>!!^!b2!mf! !>!!^!c'2 | %154
!mf! !>!!^!b!mf!!>!!^!b!mf! !>!!^!b2!mf! !>!!^!c'2 | %155
!mf! !>!!^!d'!mf!!>!!^!d'!mf! !>!!^!d'2[Q:1/4=120]!mf![Q:1/4=100] (3:2:2!^!c'2!mf! a | %156
[Q:1/4=130]!mf! [Bdg]2 z2!>(! z2!>)!!f! |!mp![Q:1/4=110] [^CGd]!>(![CGd] [CGd]2 [=CGd]2!>)! | %158
!p! [B,Gd]3!<(! [Bg][da][gb]!<)! |!mp! [e^f^ae']!>(![dfad'] [dfad']2 [df=ad']2!>)! |!p! Td'6 | %161
!p!!8va(! d'/e'/d'/e'/ Td'/4e'/4d'/4e'/4d'/4e'/4d'/4e'/4 Td'/4_e'/4d'/4e'/4d'/4e'/4d'/4e'/4 | %162
 Td'/4_e'/4d'/4e'/4d'/4e'/4d'/4e'/4[Q:1/4=130]!<(!{/^c'} d'/=e'/f'/^f'/g'/a'/^a'/!<)!!p!b'/ | %163
!p![Q:1/4=100] (3!>!e''!>(!x!>!d'' !>!d''2 !>!d''2 | %164
[Q:1/4=90] (3!>!_e''x!>!d''[Q:1/4=80] !>!d''2[Q:1/4=70] !>!d''2!>)! | %165
!ppp![Q:1/4=110] !>!d''2 x2 !>!b'2!8va)! | x2!8va(! !>!g'2 !>!d'2!8va)! | !>!b2 !>!g2 !>!d2 | %168
 (3[GB]DB, (3[GB]DB, (3[GB]DB, | %169
[Q:1/4=80]"_morendo" [GB][B,D][Q:1/4=70]!pp! [GB][B,D][Q:1/4=60] [GB]!tenuto![B,D] | %170
[M:4/4] !fermata!z2 [GB]!tenuto![B,D] !fermata!z2 [GB]!tenuto![B,D] || %171
[Q:1/4=60]!f! ._B!mf!.B!mp! B6 ||[K:Eb][M:3/4][Q:1/4=100]!p! BB B2 c2 | BB B2 c2 | %174
[Q:1/4=90] BB !>!e2[Q:1/4=100] dc |[M:4/4][Q:1/4=60] B4 z4 |[M:3/4][Q:1/4=90]!p! bb b2 c'2 | %177
 bb b2 c'2 |[Q:1/4=80] =b_b !>!e'2[Q:1/4=90] d'c' |[Q:1/4=80] [dfb]4 z2 | z6 | %181
[K:bass]!p![Q:1/4=90] .B,.B, B,2 C2 | .B,.B, B,2 C2 |[Q:1/4=80] B,B, !>!E2[Q:1/4=90] DC | %184
 [D,F,B,]6 |!p! .B,.B, B,2 _C2 |[Q:1/4=100]"_cresc." .B,.B, B,2 _C2 | ._D.D D2 D2 | %188
!mp! [_G,B,_D]6[Q:1/4=60][Q:1/4=40] ||[K:F#][K:treble]!p![Q:1/4=80] [CEc][CEc] [CEc]2 [CEc]2 | %190
 [CFc]3[Q:1/4=120]!<(! [FAf][Gcg][Afa]!<)! | [=de=d'][ded'] [ded']2 [ded']2 | %192
!f!!8va(! !^![ac'a']2 [gg'][ff']!8va)![Q:1/4=130](3[Aa][Bb][^B^b] | %193
[Q:1/4=140]!>(! [ded'][cec'] (3[cec']2 [cec']3 [cec']!>)! | %194
!mp! [cfc']3[Q:1/4=170]"^molto accel."!f!!<(!!8va(! [faf'][gc'g'][af'a']!<)! | %195
[Q:1/4=200]!fff! [^e'g'=e''][^d'e'g'^d''][=d'e'g'=d''][d'e'g'd''](3:2:4[c'e'g'c''].[=c'e'g'=c'']z/!f![Q:1/4=80]"^a tempo"[be'g'b']/ | %196
[Q:1/4=80] (3[be'g'b'][af'a'][af'a'](3[e^bd'e'][ebd'e'][fc'f'](3[fc'f'][=df=a=d'][dfad'] | %197
(3[cf^ac'][cfac']!8va)![=Begb][Q:1/4=120]"^accelerando" !^![Begb][Afa][Q:1/4=140] !^![EB^de][Fcf] | %198
[Q:1/4=160] !^![=DF=A=d][CF^Ac][Q:1/4=180] !^![DEGB][CFA][Q:1/4=200] !^![B,DE][A,CF] | %199
[Q:1/4=220] =D!f!C D!f!C | B,!f!A, B,!mf!A, || %201
[K:Eb][Q:1/4=200]"^Presto.\n con gioja"!mf! [DAB][DAB] [DAB]2{/d} [DAc]2 | [EGB]3 [Ge][Bf][eg] | %203
 [Ada][Ada] [Ada]2 [Ada]2 | [Geg]6 | [Adb][Adb] [Adb]2 [Ad_c']2 | %206
"_cresc." [Geb]3!8va(! [ege'] [fc'f'][ge'g'] | [ad'a'][ad'a'] [ad'a']2 [ad'a']2 | %208
 [ad'a'][ad'a'] [ad'a']2 [ad'a']2 | %209
[M:4/4]!fff![Q:1/4=160] z/!ff! [=a=a']/[aa']/[aa']/ (3[aa'][aa'][aa'] [aa']/[aa']/[aa']/[aa']/[aa']/[aa']/[aa']/.[aa']/ | %210
 (6:4:6!>![=a=a'][bb']^f'g'd'e'!8va)! =a/b/^f/g/d/e/=A/B/ | %211
 z/!f! _c/c/c/ c/c/c/c/ (6:4:6c/c/c/c/c/c/ (6:4:6c/c/c/c/c/c/ | %212
[Q:1/4=140] (24:16:24_c/B/=A/B/=B/=c/^c/d/e/=e/f/^f/g/^g/=a/b/=b/c'/^c'/d'/e'/=e'/f'/^f'/ | %213
[Q:1/4=130]!8va(! (3g'g'g'!<(! (3g'g'g'{/b'} a'/g'/g'/g'/ g'/g'/g'/g'/!<)! | %214
!ff! (3z e''e'' (3e''e''e'' f''/e''/e''/e''/ e''/e''/e''/e''/ | %215
[Q:1/4=135] z/ [=e''g'']/[e''g'']/[f''a'']/[^c''e'']/[d''f'']/!>(![b'_d'']/[_c''=d'']/[g'b']/[a'c'']/[=e'g']/[f'a']/[^c'e']/[d'f']/[b_d']/[_c'=d']/!8va)!!>)! | %216
!mf! (12:8:12[gb][a_c'][Q:1/4=135]"^poco a poco ritenuto"[=eg][fa][^ce][df][B_d][Q:1/4=130][_c=d][GB][Ac][=EG][FA] | %217
[Q:1/4=130]!>(! [^C=E][DF] [B,_D][_C=D] x4!>)![Q:1/4=100] | %218
[M:3/4]!p![Q:1/4=80] x2 (5:4:5z/ B,/E/G/B/ c/e/g/c'/ | x2 (5:4:5z/ B,/E/G/B/ _c/e/_g/_c'/ | %220
!p! x2 (5:4:5z/!<(! B,/E/G/B/!8va(! c'/e'/g'/c''/!<)!!8va)! | %221
!mp! x2 (5:4:5z/[Q:1/4=90] B,/E/G/B/!8va(!!<(! (5:4:5[_ce_g_c']/ c'/e'/_g'/_c''/!<)! | %222
!mf![Q:1/4=100] (5:4:5!arpeggio![egbe']/ e'/g'/b'/e''/ (5:4:5!arpeggio![cegc']/ c'/e'/g'/c''/ (5:4:5!arpeggio![Begb]/ b/e'/g'/b'/!8va)! | %223
[Q:1/4=110]"_dim." (5:4:5!arpeggio![GBdg]/ g/b/d'/g'/ (5:4:5!arpeggio![EGBe]/ e/g/b/e'/ (5:4:5!arpeggio![CEGc]/ c/e/g/c'/ | %224
[Q:1/4=120] (5:4:5!arpeggio![B,EGB]/ B/e/g/b/ (5:4:5!arpeggio![G,B,DG]/ G/B/d/g/ (5:4:5z/ E/G/B/e/ | %225
 (5:4:5z/ C/E/G/c/ (5:4:5z/ B,/E/G/B/ (5:4:5z/ G,/B,/D/G/!pp! | %226
!pp! B,/[EG]/B,/[EG]/B,/[EG]/B,/[EG]/B,/[EG]/B,/[EG]/ | %227
 B,/[EG]/B,/[EG]/B,/[EG]/B,/[EG]/B,/[EG]/B,/[EG]/ | %228
[M:4/4][Q:1/4=40]!>(! x6[Q:1/4=35][Q:1/4=30] x!>)!!pp! !fermata!G |] %229
V:2
!ped! .E,, |.E,, .[E,_G,_C]!f!.[E,G,C] .E,,.E,,!mf! .[E,G,C].[E,G,C] .E,,!ped-up! | %2
[M:3/4]!ped!.E,,!mp! .[E,=G,B,].[E,=G,B,]!ped-up!!p!!ped! .E,,.E,, .[G,B,E]!ped-up! | %3
[M:4/4]!ped! [E,,E,] [=A,E_G]!mf![A,EG] .[E,,E,].[E,,E,]!mp! .[A,EG].[A,EG] .E,!ped-up! | %4
[M:3/4]!ped! E,!p! [B,E=G][B,EG]!pp! E,E, [B,EG]!ped-up! | %5
[M:4/4]!pp!!ped! =B,,!<(! [G,DF][G,DF] B,,!ped-up!!ped!C, [G,CE][G,CE] C,!<)!!ped-up! | %6
!mp!!ped!=B,,!>(! [G,DF][G,DF] B,,!ped-up!!ped!C, [G,CE][G,CE]!>)!!pp! C,!ped-up! | %7
[M:3/4]!ped! D, [G,B,D][G,B,D]!ped-up!!ped! D, [^F,CD] D,!ped-up! | %8
[M:4/4]!ped! G,,!<(! [G,B,D][G,B,D] G,,!ped-up!!ped!G,, [G,B,D][G,B,D] G,,!<)!!ped-up! | %9
!mf!!ped!G,,!>(! [^F,CE][F,CE] G,,!ped-up!!ped!G,, [F,=B,E][F,B,E] G,,!>)!!ped-up! | %10
[M:3/4]!p!!ped!G,, [G,_B,D][G,B,D]!ped-up!!pp!!ped! G,,G,, [G,B,E]!ped-up! | %11
[M:4/4]!ped! A,, [F,_CE][F,CE] A,,!ped-up!!ped!B,, [A,B,D]!ped-up!!ped![A,B,D] B,,!ped-up! | %12
!ped! E, [G,B,E][G,B,E]!ped-up!!ped! E,E,!pp! [G,B,][E,G,]!ped-up! z | %13
!ped! (6:4:6E,,/!<(!_C,/E,/[I:staff -1]_G,/_C/_G/!<)![I:staff +1] x4 x x x!p![I:staff -1] C | %14
[M:3/4] _C!ped-up! B,2[I:staff +1] z z2 | %15
[M:4/4]!mp!!ped! (5:4:5E,,/!<(!=A,,/_C,/ E,/_G,/!<)! _C4- C!mp! !^!C2!p! [=A,C] | %16
[M:3/4] [=A,_C]!ped-up!!p! B,2 z z2 | %17
[M:4/4]!p!!ped! =B,,/ D,/G,/D/ x4!mp!!ped! (5:4:5D,,/!ped-up!D,/ ^F,/D/^F/ x4 | %18
!mp!!ped! (6:4:6_D,,/B,,/_D,/ =F,/B,/[I:staff -1]F/[I:staff +1] x4!mf!!ped! (3F,,/!ped-up!C,/F,/ x x4!ped-up! | %19
!f!!ped! (6:4:6=E,,/^C,/=E,/ ^G,/[I:staff -1]^C/^G/[I:staff +1] x4!f!!ped! (3^G,,/!ped-up!^D,/G,/ x x4!ped-up! | %20
!f!!ped! !tenuto![^F,,,^F,,]/!mp![I:staff -1] [^D^F]/!<(![DF]/[DF]/[DF]/[DF]/[DF]/[DF]/!<)!!mf!!ped-up!!ped![I:staff +1] (3!arpeggio![^F,^C=E] !fermata![F,CE][F,CE] (3[F,CE][F,CE][F,CE] || x4!ped-up! %21
[M:3/4] [=B,^D] z z2 z2 | x6 | x6 | x6 | x6 | x6 |!pp! [=E,=B,][E,B,] [E,B,]2 [E,B,]2 | %28
 [=E,=B,][E,B,] [E,B,]2 [E,C]2 | [=E,=B,][E,B,]"^smorzando" [E,B,]2 [E,=A,]2 | [=E,G,]6 || %31
[K:E]!pp!!ped! !>!E,,2 [E,G,B,][E,G,B,] !tenuto![E,G,C]2 | x4/3!ped-up! %32
!ped! !>!B,,2 [F,A,B,][F,A,B,] !tenuto![F,A,C]2!ped-up! | %33
!ped! !>!E,,2 [E,G,B,][E,G,B,] !tenuto![E,G,C]2!ped-up! | %34
!ped! !>!B,,2 [F,B,][F,B,] !tenuto![F,B,]2!ped-up! | %35
!ped! !>!E,,2 [E,G,B,][E,G,B,] !tenuto![E,G,C]2!ped-up! | %36
!ped! !>!B,,2 [F,A,B,][F,A,B,] !tenuto![F,A,=C]2!ped-up! | %37
!ped! !>!E,,2 [B,,E,G,][B,,E,G,] !tenuto![=C,F,]2!ped-up! | %38
!ped! !>!E,,2 [B,,E,][B,,E,] !tenuto![B,,E,]2!ped-up! | %39
!pp!!ped! !>!E,,2 [E,G,B,][E,G,B,]!<(! [E,G,C]2!ped-up! | %40
!ped! !>!B,,2 [F,A,B,][F,A,B,] [F,A,C]2!ped-up! | %41
!ped! !>!E,,2!<)!!pp! [E,G,B,][E,G,B,] !tenuto![E,G,C]2!ped-up! | %42
!pp!!ped! !>!B,,2 [F,B,][F,B,] !tenuto![F,B,]2!ped-up! | %43
!ped! !>!E,,2!<(! [E,=G,B,][E,G,B,] [E,G,=C]2!ped-up! | %44
!ped! !>!=D,,2 [=D,=G,B,][D,G,B,] [D,G,=C]2!ped-up! | %45
!ped! !>!=D,,2 [=D,A,=C][D,A,C]!<)!!p! [D,A,C]2!ped-up! | %46
!pp!!ped! !>!=G,,2 [=D,=G,B,][D,G,B,] [D,G,B,]2!ped-up! | %47
!p!!ped! !>!=G,,2!<(! [=D,A,=C][D,A,C] [D,A,C]2!ped-up! | %48
!ped! !>!=G,,2 [=D,=G,B,][D,G,B,] [D,G,B,]2!ped-up! | %49
!ped! !>!=G,,2 [=D,A,=C][D,A,C] [D,A,C]2!ped-up!!<)! | %50
!mp!!ped! !>!=G,,2!p! [=D,=G,B,][D,G,B,] [D,G,B,]2!ped-up! | %51
!p!!ped! !>!=D,,2!<(! [F,A,=E][F,A,=D] [F,A,D]2!ped-up! | %52
!ped! !>!=G,,2 [=G,B,=D][G,B,D] [G,B,D]2!ped-up!!<)! | %53
!p!!ped! !>!=D,2!>(! [F,A,_E][F,A,=D] [F,A,D]2!ped-up!!>)! | %54
!p!!ped! !>!=G,,2 [=G,B,=D][G,B,D] [G,B,D]2!ped-up! | %55
!mp!!ped! [B,,,B,,]2 [F,A,B,][F,A,B,] [F,A,B,]2!ped-up! | %56
!ped! !>![B,,,B,,]2 [E,G,B,][E,G,B,] [E,G,B,]2!ped-up! | %57
!ped! !>![B,,,B,,]2 [F,A,B,D][F,A,B,D] [F,A,B,D]2!ped-up! | %58
!p!!ped! !>![B,,,B,,]2 [G,B,E][G,B,E] [G,B,E]2!ped-up! | %59
!p!!ped! [B,,,B,,]2!<(! [F,A,B,][F,A,B,] [F,A,=C]2!ped-up! | %60
!ped! !>![B,,,B,,]2 [E,G,B,][E,G,B,] [E,G,B,]2!ped-up!!<)! |!mp! !>!B,,2 [F,A,D][F,A,D] [F,A,D]2 | %62
!ped! z6!ped-up! |!pp!!ped! E,B,[I:staff -1]EBE[I:staff +1]B,!ped-up! | %64
!ped! E,B,[I:staff -1]EBE[I:staff +1]B,!ped-up! |!ped! E,B,[I:staff -1]EBE[I:staff +1]B,!ped-up! | %66
!ped! E,B,[I:staff -1]EBE[I:staff +1]B,!ped-up! |!ped! E,B,[I:staff -1]EBE[I:staff +1]B,!ped-up! | %68
!ped! E,B,[I:staff -1]EBE[I:staff +1]B,!ped-up! |!ped! E,B,[I:staff -1]EBE[I:staff +1]B,!ped-up! | %70
!ped! E,B,[I:staff -1]EBE[I:staff +1]B,!ped-up! |!ped! E,B,[I:staff -1]EBE[I:staff +1]B,!ped-up! | %72
!ped! E,B,[I:staff -1]EBE[I:staff +1]B,!ped-up! |!ped! E,B,[I:staff -1]EBE[I:staff +1]B,!ped-up! | %74
!ped! E,B,[I:staff -1]EBE[I:staff +1]B,!ped-up! |!ped! E,B,[I:staff -1]EBE[I:staff +1]B,!ped-up! | %76
!ped! =D,B,[I:staff -1]=DBD[I:staff +1]B,!ped-up! | %77
!ped! =D,=C[I:staff -1]=DAD[I:staff +1]C!ped-up! |!ped! =G,2 x4!ped-up! | %79
[K:treble]!ped! =G,=D=G=dGD!ped-up! |!ped! =G,=D=G=dGD!ped-up! |!ped! =G,=D=G=dGD!ped-up! | %82
!ped! =G,=D=G=dGD!ped-up! |!ped! =G,=D=G=dGD!ped-up! |!ped! =G,=D=G=dGD!ped-up! | %85
!ped! =G,=D=G=dGD!ped-up! |[K:bass]!ped! =G,=D=GDG,B,!ped-up! | %87
!ped! B,,F,B,F[K:treble]BB,!ped-up! |[K:bass]"^molto"!ped! B,,[E,G,]B,[K:treble][EG]BB,!ped-up! | %89
[K:bass]!ped! B,,[D,F,]B,[K:treble][DF]BB,!ped-up! |[K:bass]!ped! B,,E,B,[K:treble]EGB,!ped-up! | %91
[K:bass]!ped! B,,[F,A,]B,[K:treble][DF]BB,!ped-up! | %92
[K:bass]!ped! B,,[E,G,]B,[K:treble][EG]BB,!ped-up! |[K:bass] B,,[D,F,]B,[K:treble][DF]BB, | %94
[K:bass] .[E,E].[E,E] .[E,E]2 .[E,E]2 |[K:treble]"^staccato\ndelicato" .a.e [A=c] z !>!=f'2 | %96
 .g.^f [EBe] z .[bf'].[e'g'] | .[d'a'].[^ac'].[=ad'].f .e.d | .[eg] z .[GB] z .[EGB] z | %99
[K:bass] .A.E [A,C] z[K:treble] f2 | .[CG].[CF] .[CE] z .[cf].[eg] | .[da].[^Ac].[=Ad].F .E.D | %102
 .[EG][K:bass] .^^F, .[G,B,] .[D,A,=C] .[E,G,B,] .D, | x A, =G, x !>!=F2 | x .A, .G, x x2 | %105
 .A,.E, A, x !>!=F2 | x2 .G, x .B,.A, | G, x x4 |!<(! .[E,E]2 .[E,E]2 .[E,E]2!<)! || %109
[K:C][M:4/4]!f!!ped! _D,!mp! .[G,_B,E].[G,B,E] .D,.D, .[G,B,E]!ped-up!.[G,B,E] .D, | %110
[M:3/4]!ped!!>(!._D, .[_A,_DF]!ped-up!!ped!.[A,DF] .D,!ped-up!!ped!.D,!>)!!pp! [F,D] | x2!ped-up! %111
[M:4/4]!f!!ped! _D,,!mp! .[E,=G,A,].[E,G,A,] ._D,.D, .[E,G,A,]!ped-up!.[E,G,A,] .D,- | %112
[M:3/4]!ped! .D,!mp! .[F,_A,]!ped-up!!ped!.[F,A,] ._D,!ped-up!!ped!.D, [F,_D] | x2!ped-up! %113
[M:4/4]!ped!!p! =A,, .[F,C_E].[F,CE] .A,,!ped-up!!ped!._B,, .[F,_B,_D]!ped-up!.[F,B,D] .B,, | %114
!ped! A,, .[F,C_E].[F,CE] .A,,!ped-up!!ped!._B,, .[F,_B,_D] ._D, .[=B,F]!ped-up! | %115
[M:3/4]!ped! .C, .[_A,CF]!ped-up!!ped!.[A,C] .C,!ped-up!!ped!.C, [_B,C] | x2!ped-up! %116
!ped! (3z _A,C[K:treble]!<(!(3EFG_A/=A/_B/!<)!=B/!ped-up! | %117
!mf!!ped! c[I:staff -1]c[I:staff +1] !arpeggio![F,EG][EG_B]!ped-up!!ped! [EGB] z!ped-up! | %118
[M:4/4]!ped! z!pp! .[F_A].[f_a] z z4!ped-up! | %119
[M:3/4]!ped![I:staff -1] cc[I:staff +1] !arpeggio![Feg][eg_b]!ped-up!!ped! [EG_B] z | x2!ped-up! %120
[M:4/4]!ped! z!pp! [f_a][f'_a'] z z2!ped-up! !fermata!z2 | %121
[K:bass]!mp!!ped! D, .[^G,B,^E].[G,B,E] .D,.D, .[G,B,E].[G,B,E] .D,!ped-up! | %122
[M:3/4]!>(!!ped!.D, .[A,D^F].[A,DF] .D,.D,!>)!!pp! [^F,D] | x2!ped-up! %123
[M:4/4]!p!!ped! D,, .[^E,^G,_B,].[E,G,B,] .D,.D, .[E,G,B,]!ped-up!.[E,G,B,] .D,- | %124
[M:3/4]!ped! .D, .[^F,A,].[F,A,] .D,.D, [F,D] | x2!ped-up! %125
[M:4/4]!ped!!p! =A,, .[F,C_E].[F,CE] .A,,!ped-up!!ped!._B,, .[F,_B,_D]!ped-up!.[F,B,D] .B,, | %126
!ped! ^A,, .[^F,^CE].[F,CE] .A,,!ped-up!!ped!.B,, .[F,B,^D] .D, .[B,^F]!ped-up! | %127
[M:3/4]!ped! .^C, .[A,^C^F]!ped-up!!ped!.[A,C] .C,!ped-up!!ped!.C, [B,C] | x2!ped-up! %128
!ped! (3z A,^C[K:treble]!<(!(3^E^F^GA/^A/B/!<)!^B/!ped-up! | %129
!mf!!ped! ^c[I:staff -1]c[I:staff +1] !arpeggio![^F,^EG][EGB]!ped-up!!ped! [EGB] z!ped-up! | %130
[M:4/4]!ped! z!pp! .[^FA].[^fa] z z x!ped-up! x2 | %131
[M:3/4]!ped! ^c[I:staff -1]c[I:staff +1] !arpeggio![^F^e^g][egb]!ped-up!!ped! [egb] z | x2!ped-up! %132
[M:4/4]!ped! z!pp! [^f^a][^f'^a'] z z2!ped-up! !fermata!z2 | %133
[M:3/4][K:bass]!ped! ^F,,/!<(!^F,/F,,/F,/ (3F,,F,F,,!ped-up!!ped! (3G,,G,G,, | x2!ped-up! %134
!ped! (3^F,,^F,F,,- (3[D,B,]F,[^A,^C] (3F,[I:staff -1][B,D][I:staff +1]F,!ped-up!!<)! | %135
!mf!!ped! [^F,,,^F,,][F,,,F,,] [F,,,F,,]2 [G,,,G,,]2!ped-up! |!ped! [G,,C,E,G,]6!ped-up! | %137
!pp!!ped! G,,/!<(!G,/G,,/G,/ (3G,,G,G,,!ped-up!!ped! (3_A,,_A,A,,!ped-up! | %138
!ped! (3G,,G,G,,- G, x x2!ped-up!!<)! | %139
!mf!!ped! [G,,,G,,][G,,,G,,] [G,,,G,,]2 [_A,,,_A,,]2!ped-up! |!ped! [_A,,_D,F,_A,]6!ped-up! | %141
!ped! [^G,,,^G,,][G,,,G,,] [G,,,G,,]2!ped-up!!ped! [A,,,A,,]2!ped-up! | %142
!ped! [A,,D,^F,A,]6!ped-up! | %143
!ped! [A,,,A,,][A,,,A,,] [A,,,A,,]2!ped-up!!ped! [_B,,,_B,,]2!ped-up! | %144
!ped! [_B,,_E,G,_B,]6!ped-up! | %145
!ped! !>![_B,,,_B,,]!>![B,,,B,,] !>![_C,,_C,-]2 [=B,,E,^G,B,]2!ped-up! | %146
!ped! !>![B,,,B,,]!>![B,,,B,,] !>![C,,C,-]2 [C,F,A,C]2!ped-up! | %147
[M:2/4]!ped! !>![C,,C,]!>![C,,C,] [^F,A,^D]2 | x2!ped-up! %148
!ped! !>![^C,,^C,]!>![C,,C,] [G,^A,E]2!ped-up! | %149
[M:3/4]!mp!!ped! D,/[B,^E]/D,/[B,E]/ (3D,B,E!ped-up! (3D,B,E | %150
!ped! ^D,/[B,^F]/D,/[B,F]/ (3D,B,F (3D,B,F!ped-up! | %151
!ped! =D,/[B,^E]/D,/[B,E]/ (3D,B,E (3D,B,E!ped-up! |!ped! (9:6:9^D,B,^FB,FB,FB,F!ped-up! | %153
!ped! E,/[B,G]/E,/[B,G]/ (3E,B,G (3E,CG!ped-up! |!ped! D,/[B,G]/D,/[B,G]/ (3D,B,G (3D,A,G!ped-up! | %155
!ped! D,/[A,^F]/D,/[A,F]/ (3D,A,F (3D,DF!ped-up! | %156
!ped! (9:6:9G,,!<(!D,G,[I:staff -1]D!<)!GD[I:staff +1]G,D,G,,!ped-up! | %157
!ped! !>!E,4 !>!_E,2!ped-up! |!ped! !>!D,4 D,2!ped-up! |!ped! !>!^C4 =C2!ped-up! | %160
!ped! !>!B,2 x4!ped-up! |!mp!!ped! !>!E,4!mp! !>!_E,2!ped-up! |!p!!ped! !>!D,4 x2!ped-up! | %163
!pp!!ped! (9:6:9^A,,G,G,,A,,G,G,,A,,G,G,,!ped-up! |!ped! (8:6:8=A,,D,G,,A,,D,G,,A,,D,!ped-up! | %165
!pp!!ped! (9:6:9G,,D,G,DB,G G,,D,G,!ped-up! |(9:6:9B,DG B,D,G,,G,,D,B, | %167
 (9:6:9G,,D,B,B,D,G,, G,,D,B, | (3G,,D,G, (3G,,D,G, (3G,,D,G, | G,,[D,G,] G,,[D,G,] G,,[D,G,] | %170
[M:4/4] !fermata!z2 G,,[D,G,] !fermata!z2 G,,[D,G,] || ._B,.B, B,6 ||[K:Eb][M:3/4] B,4 F,2 | %173
 G,4 F,2 | E,2 C,2!pp! =A,,2 |[M:4/4]!f!!f!!>(! .B,!mp!.B,!>)!!p! B,6 |[M:3/4][K:treble] B4 F2 | %177
 G4 C2 | D2 E2 =A,2 |[K:bass] .B,.B, .B,4 |!pp! [B,,,B,,][B,,,B,,] [B,,,B,,]4 | E,,2 B,,2 C,,2 | %182
 G,,2 B,,,2 A,,,2 | D,,2 E,,2 =A,,,2 | %184
!ped!!<(! TB,,,/4_C,,/4B,,,/4C,,/4B,,,/4C,,/4B,,,/4C,,/4B,,,/4C,,/4B,,,/4C,,/4 (3=A,,,/B,,,/_D,,/!<)!!f! ._C,,z/!ff!.=D,,/ | x2!ped-up! %185
 E,,2 B,,2 _C,,2 | _G,,2 B,,,2 A,,,2 | T_D,,6 |!p! T_D,,2!p! (3C,,D,,B,, A,,_G,, || %189
[K:F#]!ped! [F,,C,E,=A,]6!ped-up! |!ped! [C,F,^A,][C,F,A,] [C,F,A,]4!ped-up! | %191
!ped! [F,,=D,E,B,][F,,D,E,B,] [F,,D,E,B,]2 [F,,D,E,B,]2!ped-up! | [F,,C,F,A,]2!ped! z2 z2!ped-up! | %193
[K:treble]!ped! [F,CE=A][F,CEA] (3[F,CEA]2 [F,CEA]3 [F,CEA]!ped-up! | %194
!mp!!ped! [CF^A][CFA] [CFA]4!ped-up! | %195
!ped! [F,=D^EB][DEB][DEB][DEB](3:2:4[DEB].[DEB]!ped-up!z/!ped![DEB]/!ped-up! | %196
 (3!>![=DEB][CFA]!>![CFA](3[F,=A,E]!>![F,A,E][F,^A,F](3[F,A,F][F,^B,D][F,B,D] | %197
(3[F,C][F,C][K:bass]!ped-up!!ped![=D,E,=B,] [D,E,B,][C,F,A,] [F,,=A,,E,][F,,^A,,F,] | %198
!ped! [F,,=A,,^B,,][F,,^A,,C,] [D,E,G,B,][C,F,A,] [=B,,D,E,][A,,C,F,]!ped-up! | %199
!ped! =D,C, D,C, | x2!ped-up! B,,A,, B,,A,, ||[K:Eb]!mf!!ped! B,,F,!ped-up!B,FB,F, | %202
!ped! B,,G,B,EB,G,!ped-up! |!mf!!ped! B,,F,B,FB,F,!ped-up! |!ped! B,,G,B,GB,G,!ped-up! | %205
!ped! B,,F,B, [DF]B,F,!ped-up! |!ped! B,,G,B, [EG]B,G,!ped-up! |!ped! B,,F,B, [DA]B,F,!ped-up! | %208
 B,,F,B, [DA]B,F, | %209
[M:4/4]!ped! !tenuto![E,,E,]!f! [_G,_CE=A][G,CEA] [E,,E,][E,,E,] [G,CEA]!ped-up![G,CEA] .[E,,E,] | %210
!ped![E,,E,] [=G,B,EB][G,B,EB] E,E, [G,CE][G,CE]!ped-up! [E,,E,] | %211
!ff!!ped! !tenuto![E,,E,]!mf! [=A,E_G][A,EG] [E,,E,][E,,E,] [A,EG][A,EG] E,!ped-up! | %212
!ped!E, [B,E=G][B,EG] E,E, [G,B,E][G,B,E] E,,!ped-up! | %213
!ped! E,, [F,=B,D][F,B,D] E,,!ped-up!!ped!E,, [E,CE][E,DE] E,,!ped-up! | %214
!ped!E,, [B,_DEG][B,DEG] E,!ped-up!!ped!E, [CEA][CEA]!ff! [E,,E,]!ped-up! | %215
!ped! [E,,E,]!mf! [_C=DFA][CDFA]!>(! [E,,E,][E,,E,] [CDFA][CDFA] E,,!ped-up!!>)! | %216
!mp! !^!A,, [B,_CEG][B,CEG] A,, !^!C, [F,A,CD] !^!E, [F,A,C] | %217
 x4 [G,B,][A,_C] (3[=E,G,][F,A,][^F,=A,] | %218
[M:3/4]!ped! x/ !arpeggio![E,G,B,]/x/!arpeggio![E,G,B,]/ !arpeggio![E,,B,,E,G,] z!ped-up! [CEG]2 | %219
!ped! x/ !arpeggio![E,G,B,]/x/!arpeggio![E,G,B,]/ !arpeggio![E,,B,,E,G,] z!ped-up! [_CE_G]2 | %220
!ped! x/ !arpeggio![E,G,B,]/x/!arpeggio![E,G,B,]/ !arpeggio![E,,B,,E,G,] z!ped-up![K:treble] [ceg]2 | %221
[K:bass]!ped! x/ !arpeggio![E,G,B,]/x/!arpeggio![E,G,B,]/ !arpeggio![E,,B,,E,G,] z!ped-up! z2 | %222
!ped! x6!ped-up!!ped!!ped-up!!ped! |!ped! x6!ped-up!!ped!!ped-up!!ped!!ped-up! | %224
!ped! x4!ped-up!!ped!!ped-up!!ped! !arpeggio![E,G,B,E]/ x/ x!ped-up! | %225
!ped! !arpeggio![C,E,G,C]/ x/ x!ped-up!!ped! !arpeggio![B,,E,G,B,]/ x/ x!ped-up!!ped! !arpeggio![G,,B,,D,G,]/ x/ x!ped-up! | %226
!pp!!<(!!ped! G,,/[B,,E,]/G,,/[B,,E,]/G,,/!<)!!pp![B,,E,]/!>(!G,,/[B,,E,]/G,,/[B,,E,]/G,,/!pp![B,,E,]/!ped-up!!>)! | %227
!<(! G,,/[B,,E,]/G,,/[B,,E,]/G,,/!<)!!pp![B,,E,]/!>(!G,,/[B,,E,]/G,,/[B,,E,]/G,,/!pp![B,,E,]/!>)! | %228
[M:4/4]!p! x3 E,- [E,,B,,E,]4 |] %229
V:3
 x | x8 |[M:3/4] x6 |[M:4/4] x8 |[M:3/4] x6 |[M:4/4] x8 | x8 |[M:3/4] x6 |[M:4/4] x8 | x8 | %10
[M:3/4] x6 |[M:4/4] x8 | x8 | x8 x [E,_G,] |[M:3/4] [E,_G,] !^![E,=G,]2 x z2 | %15
[M:4/4] x8 x [E,_G,] |[M:3/4] [E,_G,] !^![E,=G,]2 x x2 |[M:4/4] x12 | x12 | x12 | %20
 x/ [^F,=B,]/[F,B,]/[F,B,]/[F,B,]/[F,B,]/[F,B,]/[F,B,^D]/ x4 ||[M:3/4] x6 | x6 | x6 | x6 | x6 | %26
 x6 | x6 | x6 | x6 | x6 ||[K:E] x6 | x6 | x6 | x6 | x6 | x6 | x6 | x6 | x6 | x6 | x6 | x6 | x6 | %44
 x6 | x6 | x6 | x6 | x6 | x6 | x6 | x6 | x6 | x6 | x6 | x6 | x6 | x6 | x6 | x6 | x6 | x6 | x6 | %63
 x6 | x6 | x6 | x6 | x6 | x6 | x6 | x6 | x6 | x6 | x6 | x6 | x6 | x6 | x6 | x6 |[K:treble] x6 | %80
 x6 | x6 | x6 | x6 | x6 | x6 |[K:bass] x6 | x4[K:treble] x2 |[K:bass] x3[K:treble] x3 | %89
[K:bass] x3[K:treble] x3 |[K:bass] x3[K:treble] x3 |[K:bass] x3[K:treble] x3 | %92
[K:bass] x3[K:treble] x3 |[K:bass] x3[K:treble] x3 |[K:bass] x6 |[K:treble] x6 | x6 | x4 B z | x6 | %99
[K:bass] x4[K:treble] x2 | x6 | x4 B, x | x[K:bass] x5 | [=C,=G,][C,=F,] [C,E,] z x2 | %104
 G,F, [E,,B,,E,] z z2 | x2 [A,,=C,] x x2 | G,F, [E,,B,,E,] z G,F, | [E,,B,,E,] x .E!mp!.E!p! E2 | %108
 x6 ||[K:C][M:4/4] x8 |[M:3/4] x6 |[M:4/4] x8 |[M:3/4] x6 |[M:4/4] x8 | x8 |[M:3/4] x6 | %116
 !tenuto!F,2[K:treble] x4 | c z x4 |[M:4/4] x8 |[M:3/4] x2 z4 |[M:4/4] x8 |[K:bass] x8 | %122
[M:3/4] x6 |[M:4/4] x8 |[M:3/4] x6 |[M:4/4] x8 | x8 |[M:3/4] x6 | !tenuto!^F,2[K:treble] x4 | %129
 ^c z x4 |[M:4/4] x8 |[M:3/4] x2 x4 |[M:4/4] x8 |[M:3/4][K:bass] ^F,,F,, F,,2 G,,2 | ^F,,2 F,,4 | %135
 x6 | x6 | G,,G,, G,,2 _A,,2 | G,,2 G,,4 | x6 | x6 | x6 | x6 | x6 | x6 | x6 | x6 |[M:2/4] x4 | x4 | %149
[M:3/4] D,D, D,2 D,2 | ^D,D, D,2 D,2 | D,D, D,2 D,2 | ^D,4 x2 | E,E, E,2 E,2 | D,D, D,2 D,2 | %155
 D,D, D,2 D,2 | x6 | (9:6:9!>!E,G,EG,E,G,,_E,G,_E | (9:6:9!>!D,G,DG,D,G,,D,G,D | %159
 (9:6:9!>!^CG,D, G,,D,G, =CG,D, | (9:6:9!>!B,G,D,G,,D,G,B,G,D, | %161
 (9:6:9!>!E,G,E,G,,E,G,!>!_E,G,G,, | (9:6:9!>!D,G,D,!pp!G,,D,G,D,G,G,, | x6 | x6 | x6 | x6 | x6 | %168
 x6 | x6 |[M:4/4] x8 || x8 ||[K:Eb][M:3/4] x6 | x6 | x6 |[M:4/4] .B,,2 z2 z4 | %176
[M:3/4][K:treble] x6 | x6 | x6 |[K:bass] x6 | x6 | x6 | x6 | x6 | x6 | x6 | x6 | x6 | _G,,,2 x4 || %189
[K:F#] x6 | F,,6 | x6 | x6 |[K:treble] x6 | F,6 | x6 | x6 | x4/3[K:bass] x14/3 | x6 | x4 | x4 || %201
[K:Eb] x6 | x6 | x6 | x6 | x6 | x6 | x6 | x6 |[M:4/4] x8 | x8 | x8 | x8 | x8 | x8 | x8 | x8 | x8 | %218
[M:3/4] !arpeggio![E,,B,,]/ x/ !arpeggio![E,,B,,]/ x/ x4 | %219
 !arpeggio![E,,B,,]/ x/ !arpeggio![E,,B,,]/ x/ x4 | %220
 !arpeggio![E,,B,,]/ x/ !arpeggio![E,,B,,]/ x/ x4[K:treble] | %221
[K:bass] !arpeggio![E,,B,,]/ x/ !arpeggio![E,,B,,]/ x/ x4 | x6 | x6 | x6 | x6 | E,,E,, E,,2 E,,2 | %227
 E,,E,, E,,2 E,,2 |[M:4/4] x2 B,,2- x4 |] %229
V:4
 x | x8 |[M:3/4] x6 |[M:4/4] x8 |[M:3/4] x6 |[M:4/4] x8 | x8 |[M:3/4] x6 |[M:4/4] x8 | x8 | %10
[M:3/4] x6 |[M:4/4] x8 | x8 | x10 |[M:3/4] x6 |[M:4/4] x10 |[M:3/4] x6 |[M:4/4] x12 | x12 | x12 | %20
 x8 ||[M:3/4] =B x x4 | x6 | x6 | x6 | x6 | x6 | x6 | x6 | x4 C=B, | x6 ||[K:E] x6 | x6 | %33
 x2 [EG]4 | x6 | x6 | x6 | x6 | x6 | x6 | x6 | x2 [EG]4 | x6 | x6 | x6 | x6 | x6 | x6 | x6 | x6 | %50
 x6 | x6 | x6 | x6 | x6 | x6 | x6 | x6 | x6 | x6 | x6 | x6 | x6 | x6 | x6 | x4 [Geg]2 | x6 | x6 | %68
 x6 | x6 | x6 | x6 | x6 | x4 [Geg]2 | x6 | x6 | x6 | [A=df][Adf] x4 | %78
[I:staff +1] B,[I:staff -1]=D=GBGD | x6 | x6 | x6 | x6 | x6 | x6 | x6 | x6 | x6 | x3!8va(! x3 | %89
 x6 | x6!8va)! | x6 | x3!8va(! x3 | x6 | x6!8va)! | =c'b.a.e{/=c}.B.A | ba.g.e{/c}.B.[EG] | x4 z2 | %98
 x6 | ^cB.A.E.B,.A, | .c.A.G.E[K:bass]{/C}.A,.[E,G,] | x3[K:treble] x3 | x6 | x6 | x6 | x6 | x6 | %107
 x6 | x6 ||[K:C][M:4/4] x2!8va(! x6 |[M:3/4] x4!8va)! x2 |[M:4/4] x8 |[M:3/4] x6 | %113
[M:4/4]!8va(! (3z f_g (3=g_a=a (3_b=bc' _d'/=d'/_e'/=e'/ | %114
 (3:2:2f'2 !^!_g'- (3:2:2g' f'2 !>!g'f' !>!g'f' |[M:3/4] (3_a'c'g' (3f'_d'=b (3_bc'g | %116
 _a2!8va)! x2 x2 | x2 _B x x2 |[M:4/4] x8 |[M:3/4]!8va(! x2 _b x x2 |[M:4/4] x47/8!8va)! x17/8 | %121
 x2!8va(! x6 |[M:3/4] x2!8va)! x4 |[M:4/4] x8 |[M:3/4] x6 | %125
[M:4/4]!8va(! (3z f_g(3=g_a=a (3_b=bc'_d'/=d'/_e'/=e'/ | %126
 (3:2:2^f'2 !^!g'- (3:2:2g' f'2 !>!g'f' !>!g'f' |[M:3/4] (3=a'^c'^g' (3^f'd'^b (3=bc'^g | %128
 a2!8va)! x2 x2 | x2 B x x2 |[M:4/4] x8 |[M:3/4]!8va(! x2 b x x2 |[M:4/4] x6!8va)! x2 |[M:3/4] x6 | %134
 x6 | (3^A,^F,A, A,2 x2 | x6 | x6 | x6 | (3B,G,B, B,2 x2 | x6 | %141
 (3^B,[I:staff +1]F,[I:staff -1]B, (3B,^F[^Bf] (3F[^cf]F | x6 | (3^CG,C (3CA[^cg] (3G[dg]G | x6 | %145
 D/!<(!_A,/D/A,/ (3[_E_A]A[_e_a]!<)! (3^g[e'^g']g | ^D/!<(!A,/D/A,/ (3[EA]A[ea]!<)! (3a[f'a']a | %147
[M:2/4] (3^dAd (3a[^d'^f'a']a | (3e^Ae (3^a[e'g'^a']a | %149
[M:3/4] b/!mp![^G^e]/b/!mp![Ge]/ (3b!mp!eG (3c'!mp!eG | %150
 b/!mp![A^f]/b/!mp![Af]/ (3b!mp!fA (3c'!mp!fA | b/!mp![^G^e]/b/!mp![Ge]/ (3=e'!mp!eG (3d'[Ge]c' | %152
 (9:6:9!>!b!mp!^f[AB]f[AB]f[AB]f[AB] | b/!mp![Be]/b/!mp![Be]/ (3b!mp!eB (3c'!mp!ec | %154
 b/!mp![Bd]/b/!mp![Bd]/ (3b!mp!dB (3c'!mp!ec | ^f/!mp![cd]/f/!mp![cd]/ (3f!mp!dc (3!>!f!mp!dA | %156
 x6 | x6 | x6 | x6 | [dg] x x4 |!8va(! [g^c'][gc'] [gc']2 [g=c']2 | [gbd']2 x2 b/d'/^f'/g'/ | %163
 (3[^f'^c'']^c'd' (3[f'c'']c'd' (3[f'c'']c'd' | %164
 (3[^f'=c''][=c'd']f' (3[f'c''][c'd']f' (3[f'c''][c'd']f' | (9:6:9b'g'd'bgd g'd'b!8va)! | %166
(9:6:9gdB!8va(! d'bg bgd!8va)! | (3gdB (3dBG (3BGD | x6 | x6 |[M:4/4] x8 || x8 || %172
[K:Eb][M:3/4] [DF]4 [FA]2 | [DG]4 [FA]2 | G2 [EG]2 [E_G]2 |[M:4/4] [DF]4 x4 |[M:3/4] [df]4 [fa]2 | %177
 [dg]4 [eg]2 | [fa]2 [eg]2 [e_g]2 | x6 | x6 |[K:bass] [E,G,]2 [D,F,]2 [E,G,]2 | %182
 [D,G,]2 [D,F,]2 [E,A,]2 | [F,A,]2 [E,G,]2 [E,_G,]2 | x6 | [E,_G,]2 [_D,F,]2 [E,G,]2 | %186
 [_D,_G,]2 [D,F,]2 [E,A,]2 | [_D,F,_C][E,_G,C] [=E,=G,C]2 [F,A,C]2 | x6 ||[K:F#][K:treble] x6 | %190
 x6 | x6 |!8va(! x4!8va)! x2 | x6 | x3!8va(! x3 | x6 | x6 | x4/3!8va)! x14/3 | x6 | x4 | x4 || %201
[K:Eb] x6 | x6 | x6 | x6 | x6 | x3!8va(! x3 | x6 | x6 |[M:4/4] x8 | x4!8va)! x4 | x8 | x8 | %213
!8va(! (3x ga (3=ab=b c'/^c'/d'/e'/ =e'/f'/^f'/g'/ | %214
 (3x e'=e' (3f'^f'g' a'/=a'/b'/=b'/ c''/^c''/d''/e''/ | x8!8va)! | x8 | x8 |[M:3/4] x6 | x6 | %220
 x4!8va(! x2!8va)! | x4!8va(! x2 | x6!8va)! | x6 | x6 | x6 | G,G, G,2 G,2 | G,G, G,2 G,2 | %228
[M:4/4] x6 E2 |] %229
V:5
 x | x8 |[M:3/4] x6 |[M:4/4] x8 |[M:3/4] x6 |[M:4/4] x8 | x8 |[M:3/4] x6 |[M:4/4] x8 | x8 | %10
[M:3/4] x6 |[M:4/4] x8 | x8 | x10 |[M:3/4] x6 |[M:4/4] x10 |[M:3/4] x6 |[M:4/4] x12 | x12 | x12 | %20
 x8 ||[M:3/4] x6 | x6 | x6 | x6 | x6 | x6 | x6 | x6 | x6 | x6 ||[K:E] x6 | x6 | x6 | x6 | x6 | x6 | %37
 x6 | x6 | x6 | x6 | x6 | x6 | x6 | x6 | x6 | x6 | x6 | x6 | x6 | x6 | x6 | x6 | x6 | x6 | x6 | %56
 x6 | x6 | x6 | x6 | x6 | x6 | x6 | x6 | x6 | x6 | x6 | x6 | x6 | x6 | x6 | x6 | x6 | x6 | x6 | %75
 x6 | x6 | x6 | x6 | x6 | x6 | x6 | x6 | x6 | x6 | x6 | x6 | x6 | x3!8va(! x3 | x6 | x6!8va)! | %91
 x6 | x3!8va(! x3 | x6 | x6!8va)! | x6 | x6 | x6 | x6 | x6 | x4[K:bass] x2 | x3[K:treble] x3 | x6 | %103
 x6 | x6 | x6 | x6 | x6 | x6 ||[K:C][M:4/4] x2!8va(! x6 |[M:3/4] x4!8va)! x2 |[M:4/4] x8 | %112
[M:3/4] x6 |[M:4/4]!8va(! x8 | x8 |[M:3/4] x6 | x2!8va)! x4 | x6 |[M:4/4] x8 |[M:3/4]!8va(! x6 | %120
[M:4/4] x47/8!8va)! x17/8 | x2!8va(! x6 |[M:3/4] x2!8va)! x4 |[M:4/4] x8 |[M:3/4] x6 | %125
[M:4/4]!8va(! x8 | x8 |[M:3/4] x6 | x2!8va)! x4 | x6 |[M:4/4] x8 |[M:3/4]!8va(! x6 | %132
[M:4/4] x6!8va)! x2 |[M:3/4] x6 | x6 | x6 | x6 | x6 | x6 | x6 | x6 | x6 | x6 | x6 | x6 | x6 | x6 | %147
[M:2/4] x4 | x4 |[M:3/4] x6 | x6 | x6 | x6 | x6 | x6 | x6 | x6 | x6 | x6 | x6 | x6 |!8va(! x6 | %162
 x6 | x6 | x6 | x6!8va)! | x2!8va(! x4!8va)! | x6 | x6 | x6 |[M:4/4] x8 || x8 ||[K:Eb][M:3/4] x6 | %173
 x6 | x6 |[M:4/4] x8 |[M:3/4] x6 | x6 | x6 | x6 | x6 |[K:bass] x6 | x6 | x6 | x6 | x6 | x6 | x6 | %188
 x6 ||[K:F#][K:treble] x6 | x6 | x6 |!8va(! x4!8va)! x2 | x6 | x3!8va(! x3 | x6 | x6 | %197
 x4/3!8va)! x14/3 | x6 | x4 | x4 ||[K:Eb] x6 | x6 | x6 | x6 | x6 | x3!8va(! x3 | x6 | x6 | %209
[M:4/4] x8 | x4!8va)! x4 | x8 | x8 |!8va(! x8 | x8 | x8!8va)! | x8 | x8 |[M:3/4] x6 | x6 | %220
 x4!8va(! x2!8va)! | x4!8va(! x2 | x6!8va)! | x6 | x6 | x6 | x6 | x6 |[M:4/4] x4 x B,3 |] %229
V:6
 x | x8 |[M:3/4] x6 |[M:4/4] x8 |[M:3/4] x6 |[M:4/4] x8 | x8 |[M:3/4] x6 |[M:4/4] x8 | x8 | %10
[M:3/4] x6 |[M:4/4] x8 | x8 | x10 |[M:3/4] x6 |[M:4/4] x10 |[M:3/4] x6 |[M:4/4] x12 | x12 | x12 | %20
 x8 ||[M:3/4] x6 | x6 | x6 | x6 | x6 | x6 | x6 | x6 | x6 | x6 ||[K:E] x6 | x6 | x6 | x6 | x6 | x6 | %37
 x6 | x6 | x6 | x6 | x6 | x6 | x6 | x6 | x6 | x6 | x6 | x6 | x6 | x6 | x6 | x6 | x6 | x6 | x6 | %56
 x6 | x6 | x6 | x6 | x6 | x6 | x6 | x6 | x6 | x6 | x6 | x6 | x6 | x6 | x6 | x6 | x6 | x6 | x6 | %75
 x6 | x6 | x6 | x6 | x6 | x6 | x6 | x6 | x6 | x6 | x6 | x6 | x6 | x3!8va(! x3 | x6 | x6!8va)! | %91
 x6 | x3!8va(! x3 | x6 | x6!8va)! | x6 | x6 | x6 | x6 | x6 | x4[K:bass] x2 | x3[K:treble] x3 | x6 | %103
 x6 | x6 | x6 | x6 | x6 | x6 ||[K:C][M:4/4] x2!8va(! x6 |[M:3/4] x4!8va)! x2 |[M:4/4] x8 | %112
[M:3/4] x6 |[M:4/4]!8va(! x8 | x8 |[M:3/4] x6 | x2!8va)! x4 | x6 |[M:4/4] x8 |[M:3/4]!8va(! x6 | %120
[M:4/4] x47/8!8va)! x17/8 | x2!8va(! x6 |[M:3/4] x2!8va)! x4 |[M:4/4] x8 |[M:3/4] x6 | %125
[M:4/4]!8va(! x8 | x8 |[M:3/4] x6 | x2!8va)! x4 | x6 |[M:4/4] x8 |[M:3/4]!8va(! x6 | %132
[M:4/4] x6!8va)! x2 |[M:3/4] x6 | x6 | x6 | x6 | x6 | x6 | x6 | x6 | x6 | x6 | x6 | x6 | x6 | x6 | %147
[M:2/4] x4 | x4 |[M:3/4] x6 | x6 | x6 | x6 | x6 | x6 | x6 | x6 | x6 | x6 | x6 | x6 |!8va(! x6 | %162
 x6 | x6 | x6 | x6!8va)! | x2!8va(! x4!8va)! | x6 | x6 | x6 |[M:4/4] x8 || x8 ||[K:Eb][M:3/4] x6 | %173
 x6 | x6 |[M:4/4] x8 |[M:3/4] x6 | x6 | x6 | x6 | x6 |[K:bass] x6 | x6 | x6 | x6 | x6 | x6 | x6 | %188
 x6 ||[K:F#][K:treble] x6 | x6 | x6 |!8va(! x4!8va)! x2 | x6 | x3!8va(! x3 | x6 | x6 | %197
 x4/3!8va)! x14/3 | x6 | x4 | x4 ||[K:Eb] x6 | x6 | x6 | x6 | x6 | x3!8va(! x3 | x6 | x6 | %209
[M:4/4] x8 | x4!8va)! x4 | x8 | x8 |!8va(! x8 | x8 | x8!8va)! | x8 | x8 |[M:3/4] x6 | x6 | %220
 x4!8va(! x2!8va)! | x4!8va(! x2 | x6!8va)! | x6 | x6 | x6 | x6 | x6 |[M:4/4] x4 G,4 |] %229
V:7
 x | x8 |[M:3/4] x6 |[M:4/4] x8 |[M:3/4] x6 |[M:4/4] x8 | x8 |[M:3/4] x6 |[M:4/4] x8 | x8 | %10
[M:3/4] x6 |[M:4/4] x8 | x8 | x10 |[M:3/4] x6 |[M:4/4] x10 |[M:3/4] x6 |[M:4/4] x12 | x12 | x12 | %20
 x8 ||[M:3/4] x6 | x6 | x6 | x6 | x6 | x6 | x6 | x6 | x6 | x6 ||[K:E] x6 | x6 | x6 | x6 | x6 | x6 | %37
 x6 | x6 | x6 | x6 | x6 | x6 | x6 | x6 | x6 | x6 | x6 | x6 | x6 | x6 | x6 | x6 | x6 | x6 | x6 | %56
 x6 | x6 | x6 | x6 | x6 | x6 | x6 | x6 | x6 | x6 | x6 | x6 | x6 | x6 | x6 | x6 | x6 | x6 | x6 | %75
 x6 | x6 | x6 | x6 |[K:treble] x6 | x6 | x6 | x6 | x6 | x6 | x6 |[K:bass] x6 | x4[K:treble] x2 | %88
[K:bass] x3[K:treble] x3 |[K:bass] x3[K:treble] x3 |[K:bass] x3[K:treble] x3 | %91
[K:bass] x3[K:treble] x3 |[K:bass] x3[K:treble] x3 |[K:bass] x3[K:treble] x3 |[K:bass] x6 | %95
[K:treble] x6 | x6 | x6 | x6 |[K:bass] x4[K:treble] x2 | x6 | x6 | x[K:bass] x5 | x6 | x6 | x6 | %106
 x6 | x6 | x6 ||[K:C][M:4/4] x8 |[M:3/4] x6 |[M:4/4] x8 |[M:3/4] x6 |[M:4/4] x8 | x8 |[M:3/4] x6 | %116
 x2[K:treble] x4 | x6 |[M:4/4] x8 |[M:3/4] x6 |[M:4/4] x8 |[K:bass] x8 |[M:3/4] x6 |[M:4/4] x8 | %124
[M:3/4] x6 |[M:4/4] x8 | x8 |[M:3/4] x6 | x2[K:treble] x4 | x6 |[M:4/4] x8 |[M:3/4] x6 | %132
[M:4/4] x8 |[M:3/4][K:bass] x6 | x6 | x6 | x6 | x6 | x6 | x6 | x6 | x6 | x6 | x6 | x6 | x6 | x6 | %147
[M:2/4] x4 | x4 |[M:3/4] x6 | x6 | x6 | x6 | x6 | x6 | x6 | x6 | x6 | x6 | x6 | x6 | x6 | x6 | x6 | %164
 x6 | x6 | x6 | x6 | x6 | x6 |[M:4/4] x8 || x8 ||[K:Eb][M:3/4] x6 | x6 | x6 |[M:4/4] x8 | %176
[M:3/4][K:treble] x6 | x6 | x6 |[K:bass] x6 | x6 | x6 | x6 | x6 | x6 | x6 | x6 | x6 | x6 || %189
[K:F#] x6 | x6 | x6 | x6 |[K:treble] x6 | x6 | x6 | x6 | x4/3[K:bass] x14/3 | x6 | x4 | x4 || %201
[K:Eb] x6 | x6 | x6 | x6 | x6 | x6 | x6 | x6 |[M:4/4] x8 | x8 | x8 | x8 | x8 | x8 | x8 | x8 | x8 | %218
[M:3/4] x6 | x6 | x4[K:treble] x2 |[K:bass] x6 | x6 | x6 | x6 | x6 | x6 | x6 |[M:4/4] x G,,3 x4 |] %229
V:8
 x | x8 |[M:3/4] x6 |[M:4/4] x8 |[M:3/4] x6 |[M:4/4] x8 | x8 |[M:3/4] x6 |[M:4/4] x8 | x8 | %10
[M:3/4] x6 |[M:4/4] x8 | x8 | x10 |[M:3/4] x6 |[M:4/4] x10 |[M:3/4] x6 |[M:4/4] x12 | x12 | x12 | %20
 x8 ||[M:3/4] x6 | x6 | x6 | x6 | x6 | x6 | x6 | x6 | x6 | x6 ||[K:E] x6 | x6 | x6 | x6 | x6 | x6 | %37
 x6 | x6 | x6 | x6 | x6 | x6 | x6 | x6 | x6 | x6 | x6 | x6 | x6 | x6 | x6 | x6 | x6 | x6 | x6 | %56
 x6 | x6 | x6 | x6 | x6 | x6 | x6 | x6 | x6 | x6 | x6 | x6 | x6 | x6 | x6 | x6 | x6 | x6 | x6 | %75
 x6 | x6 | x6 | x6 |[K:treble] x6 | x6 | x6 | x6 | x6 | x6 | x6 |[K:bass] x6 | x4[K:treble] x2 | %88
[K:bass] x3[K:treble] x3 |[K:bass] x3[K:treble] x3 |[K:bass] x3[K:treble] x3 | %91
[K:bass] x3[K:treble] x3 |[K:bass] x3[K:treble] x3 |[K:bass] x3[K:treble] x3 |[K:bass] x6 | %95
[K:treble] x6 | x6 | x6 | x6 |[K:bass] x4[K:treble] x2 | x6 | x6 | x[K:bass] x5 | x6 | x6 | x6 | %106
 x6 | x6 | x6 ||[K:C][M:4/4] x8 |[M:3/4] x6 |[M:4/4] x8 |[M:3/4] x6 |[M:4/4] x8 | x8 |[M:3/4] x6 | %116
 x2[K:treble] x4 | x6 |[M:4/4] x8 |[M:3/4] x6 |[M:4/4] x8 |[K:bass] x8 |[M:3/4] x6 |[M:4/4] x8 | %124
[M:3/4] x6 |[M:4/4] x8 | x8 |[M:3/4] x6 | x2[K:treble] x4 | x6 |[M:4/4] x8 |[M:3/4] x6 | %132
[M:4/4] x8 |[M:3/4][K:bass] x6 | x6 | x6 | x6 | x6 | x6 | x6 | x6 | x6 | x6 | x6 | x6 | x6 | x6 | %147
[M:2/4] x4 | x4 |[M:3/4] x6 | x6 | x6 | x6 | x6 | x6 | x6 | x6 | x6 | x6 | x6 | x6 | x6 | x6 | x6 | %164
 x6 | x6 | x6 | x6 | x6 | x6 |[M:4/4] x8 || x8 ||[K:Eb][M:3/4] x6 | x6 | x6 |[M:4/4] x8 | %176
[M:3/4][K:treble] x6 | x6 | x6 |[K:bass] x6 | x6 | x6 | x6 | x6 | x6 | x6 | x6 | x6 | x6 || %189
[K:F#] x6 | x6 | x6 | x6 |[K:treble] x6 | x6 | x6 | x6 | x4/3[K:bass] x14/3 | x6 | x4 | x4 || %201
[K:Eb] x6 | x6 | x6 | x6 | x6 | x6 | x6 | x6 |[M:4/4] x8 | x8 | x8 | x8 | x8 | x8 | x8 | x8 | x8 | %218
[M:3/4] x6 | x6 | x4[K:treble] x2 |[K:bass] x6 | x6 | x6 | x6 | x6 | x6 | x6 |[M:4/4] E,,4- x4 |] %229

